public/external-logos/lyft-logo.svg

<svg width="84" height="60" viewBox="0 0 84 60" fill="none" xmlns="http://www.w3.org/2000/svg">
<path fill-rule="evenodd" clip-rule="evenodd" d="M0 0.986599H12.7697V35.6033C12.7697 41.0939 15.2303 44.354 17.2242 45.7266C15.1455 47.5711 8.82424 49.2012 4.07273 45.2548C1.27273 42.9384 0 39.0778 0 35.4746V0.986599V0.986599ZM79.7151 29.7695V26.1234H83.6182V13.3834H79.3333C77.6788 5.7051 70.9333 0 62.8727 0C53.5818 0 46.0303 7.6354 46.0303 17.0295V46.7561C48.6606 47.1422 51.8424 46.7132 54.5151 44.4398C57.3151 42.1234 58.5879 38.2628 58.5879 34.6596V33.5443H64.9515V20.8043H58.5879V16.9437C58.5879 14.5416 60.497 12.6113 62.8727 12.6113C65.2485 12.6113 67.1576 14.5416 67.1576 16.9437V29.7266C67.1576 39.1207 74.7091 46.7561 84 46.7561V34.059C81.6242 34.059 79.7151 32.1288 79.7151 29.7695ZM31.4364 13.3405V32.0859C31.4364 33.1582 30.5455 34.0162 29.4848 34.0162C28.4242 34.0162 27.5333 33.1582 27.5333 32.0859V13.3405H14.9333V35.3459C14.9333 39.2923 16.2485 44.3111 22.3152 45.9411C28.3818 47.5711 31.8606 44.1824 31.8606 44.1824C31.5212 46.413 29.4848 48.043 26.1333 48.3862C23.5879 48.6435 20.3636 47.7856 18.7515 47.0993V58.7669C22.8667 60.0108 27.1939 60.3969 31.4788 59.539C39.2 58.0377 44.0788 51.5175 44.0788 42.8097V13.2547H31.4364V13.3405Z" fill="#FF00BF"/>
</svg>

<svg width="84" height="60" fill="none" xmlns="http://www.w3.org/2000/svg"><path fill-rule="evenodd" clip-rule="evenodd" d="M0 .987h12.77v34.616c0 5.49 2.46 8.751 4.454 10.124-2.079 1.844-8.4 3.474-13.151-.472C1.273 42.938 0 39.078 0 35.475V.987ZM79.715 29.77v-3.647h3.903v-12.74h-4.285C77.68 5.705 70.933 0 62.873 0 53.582 0 46.03 7.635 46.03 17.03v29.726c2.63.386 5.812-.043 8.485-2.316 2.8-2.317 4.073-6.177 4.073-9.78v-1.116h6.363v-12.74h-6.363v-3.86c0-2.402 1.909-4.333 4.285-4.333 2.376 0 4.285 1.93 4.285 4.333v12.783c0 9.394 7.551 17.03 16.842 17.03V34.058a4.287 4.287 0 0 1-4.285-4.29ZM31.436 13.34v18.746c0 1.072-.89 1.93-1.951 1.93-1.06 0-1.952-.858-1.952-1.93V13.34h-12.6v22.005c0 3.946 1.316 8.965 7.382 10.595 6.067 1.63 9.546-1.759 9.546-1.759-.34 2.231-2.376 3.861-5.728 4.204-2.545.258-5.77-.6-7.381-1.287v11.668c4.115 1.244 8.442 1.63 12.727.772 7.721-1.501 12.6-8.022 12.6-16.73V13.256H31.436v.085Z" fill="#FF00BF"/></svg>
